src/svg/28/key_outline_28.svg

<svg height="28" viewBox="0 0 28 28" width="28" xmlns="http://www.w3.org/2000/svg"><g fill="none" fill-rule="evenodd"><path d="m0 0h28v28h-28z"/><path d="m25 2c.5522847 0 1 .44771525 1 1v4c0 .55228475-.4477153 1-1 1h-2v2c0 .5128358-.3860402.9355072-.8833789.9932723l-.1166211.0067277h-2v2c0 .5128358-.3860402.9355072-.8833789.9932723l-.1166211.0067277h-2.556l.1808751.29929c.580003 1.0205558.9160429 2.1712042.9680218 3.3720285l.0071031.3286815c0 4.1421356-3.3578644 7.5-7.5 7.5-4.14213562 0-7.5-3.3578644-7.5-7.5s3.35786438-7.5 7.5-7.5c.5849319 0 1.1614131.0671638 1.7208294.1985739l.0531706.0134261 8.4188563-8.41906984c.1562828-.15629915.3589756-.25552344.5756909-.28425656l.1314528-.0086736zm-1 2h-2.586l-8.541074 8.5422107c-.2384011.238426-.5784683.338712-.9037063.2734432l-.1210415-.0322897c-.5580331-.1869112-1.1459057-.2833642-1.7481782-.2833642-3.03756612 0-5.5 2.4624339-5.5 5.5s2.46243388 5.5 5.5 5.5c3.0375661 0 5.5-2.4624339 5.5-5.5 0-1.2915573-.4453487-2.5120577-1.2479823-3.4889006-.326533-.397406-.2983466-.9776979.0651647-1.3415865l.8753441-.8762528c.1875661-.1877608.4420773-.2932601.7074735-.2932601h2v-2c0-.51283584.3860402-.93550716.8833789-.99327227l.1166211-.00672773h2v-2c0-.51283584.3860402-.93550716.8833789-.99327227l.1166211-.00672773h2zm-15.5 14.2c.71797017 0 1.3.5820298 1.3 1.3s-.58202983 1.3-1.3 1.3-1.3-.5820298-1.3-1.3.58202983-1.3 1.3-1.3z" fill="currentColor" fill-rule="nonzero"/></g></svg>

<?xml version="1.0" encoding="UTF-8"?>
<svg width="28px" height="28px" viewBox="0 0 28 28" version="1.1" xmlns="http://www.w3.org/2000/svg" xmlns:xlink="http://www.w3.org/1999/xlink">
    <!-- Generator: Sketch 63.1 (92452) - https://sketch.com -->
    <title>key_outline_28</title>
    <desc>Created with Sketch.</desc>
    <g id="Page-1" stroke="none" stroke-width="1" fill="none" fill-rule="evenodd">
        <g id="key_outline_28">
            <rect x="0" y="0" width="28" height="28"></rect>
            <path d="M25,2 C25.5522847,2 26,2.44771525 26,3 L26,3 L26,7 C26,7.55228475 25.5522847,8 25,8 L25,8 L23,8 L23,10 C23,10.5128358 22.6139598,10.9355072 22.1166211,10.9932723 L22.1166211,10.9932723 L22,11 L20,11 L20,13 C20,13.5128358 19.6139598,13.9355072 19.1166211,13.9932723 L19.1166211,13.9932723 L19,14 L16.444,14 L16.6248751,14.29929 C17.2048781,15.3198458 17.540918,16.4704942 17.5928969,17.6713185 L17.5928969,17.6713185 L17.6,18 C17.6,22.1421356 14.2421356,25.5 10.1,25.5 C5.95786438,25.5 2.6,22.1421356 2.6,18 C2.6,13.8578644 5.95786438,10.5 10.1,10.5 C10.6849319,10.5 11.2614131,10.5671638 11.8208294,10.6985739 L11.8208294,10.6985739 L11.874,10.712 L20.2928563,2.29293016 C20.4491391,2.13663101 20.6518319,2.03740672 20.8685472,2.0086736 L20.8685472,2.0086736 L21,2 Z M24,4 L21.414,4 L12.872926,12.5422107 C12.6345249,12.7806367 12.2944577,12.8809227 11.9692197,12.8156539 L11.9692197,12.8156539 L11.8481782,12.7833642 C11.2901451,12.596453 10.7022725,12.5 10.1,12.5 C7.06243388,12.5 4.6,14.9624339 4.6,18 C4.6,21.0375661 7.06243388,23.5 10.1,23.5 C13.1375661,23.5 15.6,21.0375661 15.6,18 C15.6,16.7084427 15.1546513,15.4879423 14.3520177,14.5110994 C14.0254847,14.1136934 14.0536711,13.5334015 14.4171824,13.1695129 L14.4171824,13.1695129 L15.2925265,12.2932601 C15.4800926,12.1054993 15.7346038,12 16,12 L16,12 L18,12 L18,10 C18,9.48716416 18.3860402,9.06449284 18.8833789,9.00672773 L18.8833789,9.00672773 L19,9 L21,9 L21,7 C21,6.48716416 21.3860402,6.06449284 21.8833789,6.00672773 L21.8833789,6.00672773 L22,6 L24,6 L24,4 Z M8.5,18.2 C9.21797017,18.2 9.8,18.7820298 9.8,19.5 C9.8,20.2179702 9.21797017,20.8 8.5,20.8 C7.78202983,20.8 7.2,20.2179702 7.2,19.5 C7.2,18.7820298 7.78202983,18.2 8.5,18.2 Z" id="↳-Icon-Color" fill="currentColor" fill-rule="nonzero"></path>
        </g>
    </g>
</svg>
